X: 1142
M: 2/4
L: 1/16
K: D
(3ABc |\
dfag fedc | Bgba gfed | cdef gbag | fedc dABc |\
dfag fedc | Bgba gfed | cdef geag | fedc d2 |]
fg |\
adcd cBge | dcba ^gafd | adcd cBge | dece defg |\
adcd cBge | dcba ^gafd | adcd cBge | dece "^da Capo"d2 ]
f2 |\
f>ff>f b3b | ^abc'a bc'd'2 | e>ee>e a3a | ^gabg a2fg |\
adcd cBge | dcba ^gafd | adcd cBge | dece "^da Capo"d2 ]

